website/src/static/table/progressbar.svg

<svg width="144" height="80" viewBox="0 0 144 80" fill="none" xmlns="http://www.w3.org/2000/svg" xmlns:xlink="http://www.w3.org/1999/xlink">
<rect width="144" height="80" fill="white"/>
<mask id="path-1-inside-1_943_63117" fill="white">
<path d="M0 0H144V28H0V0Z"/>
</mask>
<path d="M0 0H144V28H0V0Z" fill="white"/>
<path d="M12.5284 10.4062V9.27273H19.2827V10.4062H16.5597V18H15.2472V10.4062H12.5284ZM20.7752 18V9.27273H22.092V13.0653H26.4428V9.27273H27.7638V18H26.4428V14.1946H22.092V18H20.7752Z" fill="#191B23"/>
<path d="M144 27H0V29H144V27Z" fill="#E0E1E9" mask="url(#path-1-inside-1_943_63117)"/>
<g clip-path="url(#clip0_943_63117)">
<rect width="88" height="12" transform="translate(28 48)" fill="#E0E1E9"/>
<rect x="28" y="48" width="44" height="12" rx="6" fill="#009F81"/>
<rect x="28" y="48" width="44" height="12" rx="6" fill="url(#pattern0)" fill-opacity="0.1"/>
</g>
<defs>
<pattern id="pattern0" patternContentUnits="objectBoundingBox" width="0.363636" height="1.33333">
<use xlink:href="#image0_943_63117" transform="scale(0.0227273 0.0833333)"/>
</pattern>
<clipPath id="clip0_943_63117">
<rect x="28" y="48" width="88" height="12" rx="6" fill="white"/>
</clipPath>
<image id="image0_943_63117" width="16" height="16" xlink:href="data:image/png;base64,iVBORw0KGgoAAAANSUhEUgAAABAAAAAQCAYAAAAf8/9hAAAAAXNSR0IArs4c6QAAAGVJREFUOBGd0kkKACEMBVH1/ne2qYUoTfIzuBAR65GFc9y179E8Tev2XLZiQIB2DLDYxDoTek+2AsIY1QNSsQekYwsoxX+gHL9AKwaIQt7IfxIBMmYABYQx43lAKvaAdGwBpRjgA6C8EBcVFPmqAAAAAElFTkSuQmCC"/>
</defs>
</svg>

<svg xmlns="http://www.w3.org/2000/svg" xmlns:xlink="http://www.w3.org/1999/xlink" width="144" height="80" fill="none"><path fill="#fff" d="M0 0h144v80H0z"/><mask id="a" fill="#fff"><path d="M0 0h144v28H0V0Z"/></mask><path fill="#fff" d="M0 0h144v28H0V0Z"/><path fill="#191B23" d="M12.528 10.406V9.273h6.755v1.133H16.56V18h-1.313v-7.594h-2.719ZM20.775 18V9.273h1.317v3.792h4.35V9.273h1.322V18h-1.321v-3.805h-4.351V18h-1.317Z"/><path fill="#E0E1E9" d="M144 27H0v2h144v-2Z" mask="url(#a)"/><g clip-path="url(#b)"><path fill="#E0E1E9" d="M28 48h88v12H28z"/><rect width="44" height="12" x="28" y="48" fill="#009F81" rx="6"/><rect width="44" height="12" x="28" y="48" fill="url(#c)" fill-opacity=".1" rx="6"/></g><defs><clipPath id="b"><rect width="88" height="12" x="28" y="48" fill="#fff" rx="6"/></clipPath><pattern id="c" width=".364" height="1.333" patternContentUnits="objectBoundingBox"><use xlink:href="#d" transform="scale(.02273 .08333)"/></pattern><image xlink:href="data:image/png;base64,iVBORw0KGgoAAAANSUhEUgAAABAAAAAQCAYAAAAf8/9hAAAAAXNSR0IArs4c6QAAAGVJREFUOBGd0kkKACEMBVH1/ne2qYUoTfIzuBAR65GFc9y179E8Tev2XLZiQIB2DLDYxDoTek+2AsIY1QNSsQekYwsoxX+gHL9AKwaIQt7IfxIBMmYABYQx43lAKvaAdGwBpRjgA6C8EBcVFPmqAAAAAElFTkSuQmCC" id="d" width="16" height="16"/></defs></svg>
